X: 87
T: Preludium d-moll
C: Maria Szymanowska
%%abc-version 2.0
%%abcx-abcm2ps-target-version 5.9.1 (29 Sep 2008)
%%abc-creator hum2abc beta
%%abcx-conversion-date 2021/10/04 07:38:41
%%abc-edited-by Leszek Kubiak
%%abc-edited-by Anastazja Marusiak
%%abcx-initial-encoding-date 2020-06-16
%%humdrum-veritas 1493974043
%%humdrum-veritas-data 1974818208
%%linebreak <none>
%%barnumbers 0
L: 1/8
M: 6/8
N: Derived from pl-kozmzk--mzk-m-31--014_szymanowska-maria--preludium-d-moll.krn
%%staves {1 2}
V: 1 clef=treble
V: 2 clef=bass
K: F
[V:1] fed ^cde & A3G3 | 
[V:2] [D3F3][A,3E3] | 
[V:1] d=cB ABc & F3_E3 | 
[V:2] [B,3D3][^F,3C3] | 
[V:1] BAG ^FGA & D3C3 | 
[V:2] [G,3B,3][D,3A,3] | 
[V:1] G=F_E _DEF & B,3_A,3 | 
[V:2] [_E,3G,3]!accent![=B,,3F,3] | 
[V:1] _EDC BAG & G,3=E3 | 
[V:2] [C,2_E,2]z!accent![^C,3G,3] | 
[V:1] ^FED _edc & D3A3 | 
[V:2] [D,2^F,2]z!accent![F,3C3] | 
[V:1] BAG bag & G3!arpeggio![A3^c3] | 
[V:2] [G,2B,2]z!arpeggio![A,3E3G3] | 
[V:1] ba^g a=ge & !arpeggio![A3d3]!arpeggio![A3^c3] | 
[V:2] !arpeggio![A,3D3F3]!arpeggio![A,3C3E3] | 
[V:1] fed ^cde & A3G3 | 
[V:2] [D3F3][A,3E3] | 
[V:1] dcB ABc & F3_E3 | 
[V:2] [B,3D3][^F,3C3] | 
[V:1] BAG ^c{/=c}!accent!BA & D3=E3 | 
[V:2] [G,3B,3][E,3G,3A,3] | 
[V:1] d{/c}!accent!BA e{/c}!accent!BA & F3G3 | 
[V:2] [D,3F,3A,3][^C,3E,3A,3] | 
[V:1] f3e3 & d^GA B^FG | 
[V:2] [D,3F,3]!trill!G,3{/^F,G,} | 
[V:1] d3^c3 & AEF G^DE | 
[V:2] A,3A,,3 | 
[V:1] da2-af2 & [FA] fe fd!accent!^c | 
[V:2] D,2zz2z | 
[V:1] fd2^c2x & d!accent!A^G A=G z :|]  
[V:2] z2zz2[A,E] :|]  
[V:1] d3c3 & BEF GD_E | 
[V:2] B,,3!trill!E,3{/D,E,} | 
[V:1] B3A3 & F^CD _E=B,C | 
[V:2] F,3F,,3 | 
[V:1] {/df} d'c'b {/ac'} g' f' _e' | 
[V:2] B,,2z[F,3C3_E3A3] | 
[V:1] d'c'b {/ac'} g'f'_e' | 
[V:2] [B,2D2]z[F,3C3_E3A3] | 
[V:1] d'3c'3 & b=ef gd_e | 
[V:2] [B,3D3]!trill!_E3{/DE} | 
[V:1] b3a3 & f^cd _e=Bc | 
[V:2] F3F,3 | 
[V:1] {/df} d'c'b {/d^f} _e'd'c' | 
[V:2] B,2z[K:clef=treble][D3A3c3] | 
[V:1] bag {/d^f} _e'd'c' | 
[V:2] [G2B2]z[D3A3c3] | 
[V:1] b3a3 & g^cd _e=Bc | 
[V:2] [G3B3][K:clef=bass]!trill!C3{/=B,C} | 
[V:1] g3^f3 & dAB c^GA | 
[V:2] D3D,3 | 
[V:1] {/Bd} bag {/ce} d'c'b | 
[V:2] G,2z[K:clef=treble][C3G3B3] | 
[V:1] agf {/ce} d'c'b | 
[V:2] [F2A2]z[C3G3B3] | 
[V:1] a3g3 & f=Bc dA_B | 
[V:2] [F3A3][K:clef=bass]!trill!B,3{/A,B,} | 
[V:1] f3e3 & c^GA B^F=G | 
[V:2] C3C,3 | 
[V:1] fc'2-c'!accent!a2- & [Ac] !accent!a^g afe | 
[V:2] F,2zz2z | 
[V:1] a!accent!f2-fc2 & fc=B cAF | 
[V:2] z6 | 
[V:1] {/CE} !accent!dcB AGF | 
[V:2] [C,3G,3B,3][F,2A,2]z | 
[V:1] {/D^F} !accent!_edc BAG | 
[V:2] [D,3A,3C3][G,2B,2]z | 
[V:1] {/Bc} bag {/GB} gfe | 
[V:2] !arpeggio![G,2B,2C2E2]z!arpeggio![E,2G,2B,2C2]z | 
[V:1] {/EG} edc {/CG} cdB | 
[V:2] !arpeggio![C,2E,2G,2B,2]z[E,,3E,3] | 
[V:1] Af2-fa2- & A c=B cfe | 
[V:2] [F,,3F,3]-[F,,3F,3]- | 
[V:1] ac'2c'bg & fa^g adB | 
[V:2] [F,,3F,3]B,3[K:clef=treble] | 
[V:1] [Af]z2zz2 | 
[V:2] CA2-AF2- & CFE FC=B, | 
[V:1] zz2!accent![cc']!accent![d=b]!accent![e_b] | 
[V:2] FC2[K:clef=bass]C,2z[K:clef=treble] & C!accent!A,F,x3 | 
[V:1] agf efg & f3!accent!A3 | 
[V:2] [F3A3][^C3G3][K:clef=bass] | 
[V:1] fed ^cde & A3G3 | 
[V:2] [D3F3][A,3E3] | 
[V:1] d=cB ABc & F3_E3 | 
[V:2] [B,3D3][^F,3C3] | 
[V:1] BAG ^FGA & D3C3 | 
[V:2] [G,3B,3][D,3A,3] | 
[V:1] G=F_E BAG & B,3=E3 | 
[V:2] [_E,3G,3]!accent![^C,3G,3] | 
[V:1] ^FED _edc & D3A3 | 
[V:2] [D,2^F,2]z!accent![F,3C3] | 
[V:1] BAG ba^g & G3!arpeggio![A3^c3] | 
[V:2] [G,2B,2]z[A,3G3] | 
[V:1] ba^g a=ge & !arpeggio![A3d3]!arpeggio![A3^c3] | 
[V:2] [A,3D3F3][A,3E3] | 
[V:1] fed ^cde & A3G3 | 
[V:2] [D3F3][A,3E3] | 
[V:1] d=cB ABc & F3_E3 | 
[V:2] [B,3D3][^F,3C3] | 
[V:1] BAG ^c{/=c}!accent!BA & D3=E3 | 
[V:2] [G,3B,3][E,3G,3A,3] | 
[V:1] d{/c}!accent!BA e{/c}!accent!BA & F3G3 | 
[V:2] [D,3F,3A,3][^C,3E,3A,3] | 
[V:1] f3e3 & d^GA B^FG | 
[V:2] [D,3F,3]!trill!G,3{/^F,G,} | 
[V:1] d3^c3 & AEF G^DE | 
[V:2] A,3A,,3 | 
[V:1] a3b3 & fed ^ceg | 
[V:2] D,2z[A,3E3G3] | 
[V:1] a3b3 & f!trill!ed ^ceg | 
[V:2] [D2F2]z[A,3E3G3] | 
[V:1] a3B2!accent!e & fed BGB | 
[V:2] [D2F2]zG,3 | 
[V:1] A2!accent!dG2!accent!^c & AFA GEG | 
[V:2] A,3A,,3 | 
[V:1] d3B3 & F!trill!ED ^CEG | 
[V:2] [D,2F,2]z[A,,3E,3G,3] | 
[V:1] A3B3 & FED ^CEG | 
[V:2] [D,3F,3][A,,3E,3G,3] | 
[V:1] A3B,2!accent!E & FED B,G,B, | 
[V:2] [D,2F,2]zG,,3 | 
[V:1] A,2!accent!DG,2!accent!^C & A,F,A, G,E,G, | 
[V:2] A,,3A,,,3 | 
[V:1] [F,D] B,A, G,A,B, | 
[V:2] D,, G,F, E,F,G, | 
[V:1] A,G,A, B,A,G, | 
[V:2] F,E,F, G,F,E, | 
[V:1] A, F,E, D,E,F, | 
[V:2] F, A,,G,, F,,G,,A,, | 
[V:1] E,D,E, F,E,^C, |]  
[V:2] G,,F,,G,, A,,G,,E,, |]  
[V:1] [M:2/4]D,E,/F,/ G,/A,/=B,/^C/ [I:setbarnb 68]| 
[V:2] [M:2/4]D,,E,,/F,,/ G,,/A,,/=B,,/^C,/ | 
[V:1] D/A,/=B,/^C/ D/E/F/G/ | 
[V:2] D,/A,,/=B,,/^C,/ D,/E,/F,/G,/ | 
[V:1] A/D/E/F/ G/A/=B/^c/ | 
[V:2] A,/D,/E,/F,/ G,/A,/=B,/^C/ | 
[V:1] d/A/=B/^c/ d/e/f/g/ | 
[V:2] D/A,/=B,/^C/[K:clef=treble] D/E/F/G/ | 
[V:1] a/d/e/f/ g/a/=b/^c'/ | 
[V:2] A/D/E/F/ G/A/=B/^c/ | 
[V:1] d'/a/=b/^c'/ d'/e'/f'/g'/ | 
[V:2] d/A/=B/^c/ d/e/f/g/ | 
[V:1] !wedge!a'/e'/f'/!wedge!^c'/ !wedge!d'/^g/a/!wedge!e/ | 
[V:2] !wedge!a/e/f/!wedge!^c/ !wedge!d/^G/A/!wedge!E/ | 
[V:1] f/^c/d/^G/ A/E/F/^C/ | 
[V:2] F/^C/D/^G,/[K:clef=bass] A,/E,/F,/^C,/ | 
[V:1] D/^G,/A,/E,/ F,/^C,/D,/_B,,/ | 
[V:2] D,/^G,,/A,,/E,,/ F,,/^C,,/D,,/_B,,,/ | 
[V:1] A,, z [EG^c] z | 
[V:2] A,,, z [A,,,A,,] z | 
[V:1] [D2F2d2]z2 | 
[V:2] [D,,2D,2]z2 | 
[V:1] [A2^c2e2a2]z2 | 
[V:2] [A,,,2A,,2]z2 | 
[V:1] !fermata![F,4A,4D4] |]  
[V:2] !fermata![D,,4D,4] |]  


